X:1
T:Title
%%score { ( 1 3 ) | ( 2 4 ) }
L:1/8
M:3/4
K:Bb
V:1 treble nm="Grand Piano"
V:3 treble 
V:2 bass 
V:4 bass 
V:1
 z2 z2[Q:1/4=100] [DF]>[Fd] | [Ec]>[DB] [B,D]2 [EG]2 | [DF]4 [FB]>[FA] | G>^F G2 A2 | %4
[M:2/4] [DB]4 |[M:1/4] [DF]>[Fd] |[M:3/4] [Ec]>[DB] [B,D]2 [EG]2 | [DF]4 [B,FB]>[B,FB] | %8
 F3- [Fc] BG |[M:2/4] F4 |[M:1/4] A>B |[M:3/4] c>=B c2 d2 | e>d c2 B>c | d>_d =d2 e2 | %14
[M:2/4] f>e d2 |[M:1/4] d>c |[M:3/4] B>A B2 [Fd]2 | G4 z2 | F2 d2 c2 |[M:2/4] [DB]4 |] %20
V:2
 z2 z2 [B,,B,]>[B,,B,] | [B,,F,]>[B,,F,] [B,,F,]2 [B,,B,]2 | [B,,B,]4 [D,B,]>[D,B,] | %3
 [E,B,E]>[E,A,E] [E,B,E]2 [F,C]2 |[M:2/4] [B,,F,]4 |[M:1/4] [B,,B,]>[B,,B,] | %6
[M:3/4] [B,,F,]>[B,,F,] [B,,F,]2 [B,,B,]2 | [B,,B,]4 D,>D, | z2 z A, G,B, |[M:2/4] [F,A,]4 | %10
[M:1/4] [F,F]>[K:treble][F,G,F] |[M:3/4] [F,A,F]>[F,_A,F] [F,=A,F]2 [F,B,F]2 | C2 z2 z2 | %13
 [B,F]>[B,=E] [B,F]2 [B,CF]2 |[M:2/4] D2 z2 |[M:1/4][K:bass] [F,A,F]>[F,A,E] | %16
[M:3/4] [G,B,D]>[G,CD] [G,B,D]2 [D,B,]2 | z2[K:treble] B2[K:bass] D,>[E,B,E] | D2 F2 [F,A,E]2 | %19
[M:2/4] [B,,B,]4 |] %20
V:3
 x6 | x6 | x6 | x6 |[M:2/4] x4 |[M:1/4] x2 |[M:3/4] x6 | x6 | [CA]4 =E2 |[M:2/4] x4 |[M:1/4] x2 | %11
[M:3/4] x6 | x6 | x6 |[M:2/4] x4 |[M:1/4] x2 |[M:3/4] x6 | c2 z2 [B,FA]>G | x6 |[M:2/4] x4 |] %20
V:4
 x6 | x6 | x6 | x6 |[M:2/4] x4 |[M:1/4] x2 |[M:3/4] x6 | x6 | C,4 C,2 |[M:2/4] x4 | %10
[M:1/4] x3/2[K:treble] x/ |[M:3/4] x6 | [F,F]->[F,-B,F-] [F,A,F]2 [B,D]>[B,E] | x6 | %14
[M:2/4] [B,F]->[B,CF-] [B,F]2 |[M:1/4][K:bass] x2 |[M:3/4] x6 | [E,G,]4[K:treble][K:bass] z2 | %18
 [F,B,]4 z2 |[M:2/4] x4 |] %20

